assets/img/braze_icons/skip-back.svg

<svg fill="none" height="24" viewBox="0 0 24 24" width="24" xmlns="http://www.w3.org/2000/svg"><g clip-rule="evenodd" fill="#801ed7" fill-rule="evenodd"><path d="m5 4c.55228 0 1 .44772 1 1v14c0 .5523-.44772 1-1 1s-1-.4477-1-1v-14c0-.55228.44772-1 1-1z"/><path d="m17.9978 4.08063c.6091-.00066 1.1853.27627 1.5653.75229.3023.37868.3748.83423.4055 1.1725.0315.34637.0314.78443.0314 1.27911v9.43097c0 .4947.0001.9327-.0314 1.2791-.0307.3383-.1032.7938-.4055 1.1725-.38.476-.9562.7529-1.5653.7523-.4845-.0005-.8855-.2285-1.1688-.4158-.2902-.1918-.6322-.4655-1.0185-.7746l-5.90192-4.7215c-.24232-.1938-.47237-.3778-.65021-.5477-.19064-.1821-.40528-.424-.53049-.7582-.16946-.4524-.16946-.9508 0-1.4032.12521-.3342.33985-.5761.53049-.7582.17783-.1699.40787-.3539.65017-.54766.00948-.00758.01898-.01518.0285-.0228l5.87346-4.69878c.3863-.30905.7283-.58272 1.0185-.77453.2833-.18732.6843-.41528 1.1688-.4158z"/></g></svg>

<svg width="24" height="24" viewBox="0 0 24 24" fill="none" xmlns="http://www.w3.org/2000/svg">
<path fill-rule="evenodd" clip-rule="evenodd" d="M5 4C5.55228 4 6 4.44772 6 5V19C6 19.5523 5.55228 20 5 20C4.44772 20 4 19.5523 4 19V5C4 4.44772 4.44772 4 5 4Z" fill="#801ED7"/>
<path fill-rule="evenodd" clip-rule="evenodd" d="M17.9978 4.08063C18.6069 4.07997 19.1831 4.3569 19.5631 4.83292C19.8654 5.2116 19.9379 5.66715 19.9686 6.00542C20.0001 6.35179 20 6.78985 20 7.28453V16.7155C20 17.2102 20.0001 17.6482 19.9686 17.9946C19.9379 18.3329 19.8654 18.7884 19.5631 19.1671C19.1831 19.6431 18.6069 19.92 17.9978 19.9194C17.5133 19.9189 17.1123 19.6909 16.829 19.5036C16.5388 19.3118 16.1968 19.0381 15.8105 18.729L9.90858 14.0075C9.66626 13.8137 9.43621 13.6297 9.25837 13.4598C9.06773 13.2777 8.85309 13.0358 8.72788 12.7016C8.55842 12.2492 8.55842 11.7508 8.72788 11.2984C8.85309 10.9642 9.06773 10.7223 9.25837 10.5402C9.4362 10.3703 9.66624 10.1863 9.90854 9.99254C9.91802 9.98496 9.92752 9.97736 9.93704 9.96974L15.8105 5.27096C16.1968 4.96191 16.5388 4.68824 16.829 4.49643C17.1123 4.30911 17.5133 4.08115 17.9978 4.08063Z" fill="#801ED7"/>
</svg>
